X: 4
T:Mud In Your Eye
R:Reel
C:Tom Adler, A Long Time Overdue
N:Transcribed by Bruce Thomson
M:2/4
K:D
g2f2 edcA|d2c2 BAGF|G4 F4|EFGA Bcde|g2f2 edcA|
d2c2 BAGF|G2G F2E2|D8::[F4A4] [G4B4]|[E4=c4]
[F2d2]A^c|d2Ac d2f2|
gfe2 a4|[F4A4] [G4B4]|[E4=c4] [F2d2]A^c|d2Ac d2f2|gfe2 d4:|

